;FLAVOR:UltiGCode
;TIME:3380
;MATERIAL:18695
;MATERIAL2:0
;NOZZLE_DIAMETER:0.6
;MINX:85.161
;MINY:77.34
;MINZ:0.4
;MAXX:150.148
;MAXY:143.683
;MAXZ:21.75
;Generated with Cura_SteamEngine 4.4.1
M82 ;absolute extrusion mode

G92 E0
G92 E0
G10
;LAYER_COUNT:62
;LAYER:0
M107
G0 F3960 X99.181 Y83.745 Z0.4
;TYPE:SKIRT
G11
G1 F1980 X99.538 Y83.326 E0.1167
G1 X99.831 Y83.057 E0.20102
G1 X100.108 Y82.829 E0.27708
G1 X100.465 Y82.569 E0.37071
G1 X100.673 Y82.435 E0.42316
G1 X100.77 Y82.374 E0.44746
G1 X101.245 Y82.088 E0.565
G1 X101.309 Y82.051 E0.58067
G1 X102.045 Y81.627 E0.76074
G1 X102.122 Y81.583 E0.77955
G1 X102.476 Y81.39 E0.86502
G1 X102.515 Y81.369 E0.87441
G1 X102.979 Y81.123 E0.98575
G1 X103.033 Y81.095 E0.99865
G1 X103.543 Y80.835 E1.12001
G1 X103.651 Y80.782 E1.14551
G1 X104.739 Y80.27 E1.40043
G1 X104.833 Y80.227 E1.42234
G1 X105.395 Y79.981 E1.5524
G1 X105.497 Y79.939 E1.57579
G1 X106.273 Y79.626 E1.75318
G1 X106.34 Y79.599 E1.76849
G1 X106.678 Y79.47 E1.84519
G1 X106.725 Y79.453 E1.85579
G1 X107.219 Y79.272 E1.96732
G1 X107.335 Y79.232 E1.99333
G1 X108.446 Y78.865 E2.24138
G1 X108.545 Y78.833 E2.26344
G1 X109.158 Y78.649 E2.39913
G1 X109.276 Y78.616 E2.4251
G1 X110.4 Y78.318 E2.67162
G1 X110.497 Y78.294 E2.69281
G1 X111.087 Y78.154 E2.82136
G1 X111.216 Y78.125 E2.84939
G1 X112.361 Y77.895 E3.09698
G1 X112.467 Y77.876 E3.11981
G1 X113.068 Y77.773 E3.24908
G1 X113.188 Y77.754 E3.27484
G1 X114.314 Y77.598 E3.51583
G1 X114.415 Y77.585 E3.53742
G1 X115.061 Y77.513 E3.67522
G1 X115.172 Y77.503 E3.69884
G1 X116.042 Y77.432 E3.8839
G1 X116.176 Y77.423 E3.91237
G1 X117.822 Y77.347 E4.26169
G1 X117.949 Y77.343 E4.28863
G1 X118.186 Y77.34 E4.33888
G1 X118.633 Y77.361 E4.43375
G1 X119.068 Y77.407 E4.52648
G1 X119.61 Y77.505 E4.64325
G1 X120.233 Y77.723 E4.78318
G1 X121.422 Y78.261 E5.05985
G1 X123.932 Y79.351 E5.63998
G1 X126.496 Y80.383 E6.22592
G1 X129.009 Y81.307 E6.79355
G1 X131.591 Y82.176 E7.3711
G1 X134.208 Y82.978 E7.95138
G1 X137.285 Y83.815 E8.6274
G1 X137.636 Y83.929 E8.70564
G1 X137.923 Y84.038 E8.77073
G1 X138.261 Y84.186 E8.84895
G1 X138.598 Y84.353 E8.92869
G1 X139.239 Y84.754 E9.08898
G1 X139.493 Y84.951 E9.15712
G1 X139.652 Y85.082 E9.2008
G1 X140.392 Y85.723 E9.40835
G1 X140.48 Y85.801 E9.43328
G1 X141.123 Y86.394 E9.61872
G1 X141.2 Y86.467 E9.64121
G1 X141.444 Y86.705 E9.71347
G1 X141.468 Y86.729 E9.72067
G1 X141.881 Y87.139 E9.84404
G1 X141.914 Y87.172 E9.85394
G1 X142.313 Y87.578 E9.97461
G1 X142.392 Y87.661 E9.99891
G1 X142.97 Y88.286 E10.17938
G1 X143.014 Y88.334 E10.19319
G1 X143.241 Y88.588 E10.26541
G1 X143.279 Y88.632 E10.27773
G1 X143.629 Y89.036 E10.39105
G1 X143.702 Y89.122 E10.41496
G1 X144.309 Y89.866 E10.61853
G1 X144.391 Y89.971 E10.64677
G1 X145.231 Y91.078 E10.94137
G1 X145.309 Y91.185 E10.96944
G1 X145.84 Y91.938 E11.16478
G1 X145.903 Y92.03 E11.18842
G1 X146.252 Y92.557 E11.32242
G1 X146.314 Y92.654 E11.34682
G1 X146.763 Y93.379 E11.52761
G1 X146.801 Y93.441 E11.54303
G1 X146.96 Y93.709 E11.60909
G1 X146.982 Y93.747 E11.6184
G1 X147.272 Y94.249 E11.74131
G1 X147.327 Y94.348 E11.76532
G1 X147.76 Y95.152 E11.95891
G1 X147.813 Y95.254 E11.98328
G1 X148.186 Y96 E12.1601
G1 X148.24 Y96.111 E12.18627
G1 X148.63 Y96.959 E12.38414
G1 X148.661 Y97.028 E12.40018
G1 X148.91 Y97.599 E12.53224
G1 X148.954 Y97.706 E12.55677
G1 X149.357 Y98.713 E12.78671
G1 X149.397 Y98.816 E12.81014
G1 X149.779 Y99.857 E13.04522
G1 X149.816 Y99.964 E13.06922
G1 X149.88 Y100.156 E13.11213
G1 X149.996 Y100.584 E13.20614
G1 X150.071 Y100.945 E13.2843
G1 X150.143 Y101.491 E13.40106
G1 X150.148 Y101.85 E13.47717
G1 X150.131 Y102.334 E13.57985
G1 X150.112 Y102.595 E13.63532
G1 X149.998 Y103.687 E13.86809
G1 X149.992 Y103.743 E13.88003
G1 X149.949 Y104.1 E13.95626
G1 X149.703 Y106.79 E14.52892
G1 X149.531 Y109.533 E15.11157
G1 X149.438 Y112.252 E15.68834
G1 X149.42 Y114.972 E16.26499
G1 X149.481 Y117.673 E16.83775
G1 X149.6 Y120.147 E17.36284
G1 X149.604 Y120.336 E17.40292
G1 X149.603 Y120.932 E17.52927
G1 X149.525 Y121.689 E17.69061
G1 X149.479 Y121.913 E17.73909
G1 X149.306 Y122.508 E17.87045
G1 X149.17 Y122.863 E17.95104
G1 X149.111 Y123.008 E17.98423
G1 X148.593 Y124.209 E18.26152
G1 X148.542 Y124.322 E18.2878
G1 X148.215 Y125.017 E18.45063
G1 X148.166 Y125.116 E18.47405
G1 X147.976 Y125.491 E18.56317
G1 X147.962 Y125.519 E18.56981
G1 X147.719 Y125.989 E18.68198
G1 X147.693 Y126.039 E18.69393
G1 X147.417 Y126.554 E18.8178
G1 X147.359 Y126.658 E18.84304
G1 X146.869 Y127.507 E19.05086
G1 X146.815 Y127.597 E19.07311
G1 X146.38 Y128.305 E19.24927
G1 X146.305 Y128.422 E19.27873
G1 X145.666 Y129.381 E19.52304
G1 X145.608 Y129.466 E19.54485
G1 X145.236 Y129.993 E19.68161
G1 X145.16 Y130.096 E19.70875
G1 X144.446 Y131.038 E19.95933
G1 X144.387 Y131.115 E19.9799
G1 X144.049 Y131.538 E20.09469
G1 X143.976 Y131.626 E20.11893
G1 X143.382 Y132.325 E20.31339
G1 X143.338 Y132.376 E20.32767
G1 X143.146 Y132.594 E20.38926
G1 X143.116 Y132.628 E20.39887
G1 X142.719 Y133.068 E20.52451
G1 X142.626 Y133.167 E20.5533
G1 X141.808 Y134.011 E20.80248
G1 X141.742 Y134.078 E20.82242
G1 X141.306 Y134.506 E20.95194
G1 X141.222 Y134.585 E20.97639
G1 X140.591 Y135.168 E21.15852
G1 X140.486 Y135.262 E21.1884
G1 X139.357 Y136.23 E21.50367
G1 X139.263 Y136.308 E21.52957
G1 X138.563 Y136.87 E21.71988
G1 X138.468 Y136.944 E21.74541
G1 X137.927 Y137.351 E21.88893
G1 X137.465 Y137.649 E22.00548
G1 X137.197 Y137.782 E22.06891
G1 X136.815 Y137.953 E22.15764
G1 X136.413 Y138.106 E22.24883
G1 X136.199 Y138.174 E22.29643
G1 X135.817 Y138.274 E22.38014
G1 X135.565 Y138.326 E22.43469
G1 X135.565 Y138.325 E22.43491
G1 X132.892 Y138.893 E23.01423
G1 X130.256 Y139.53 E23.58915
G1 X127.573 Y140.258 E24.17851
G1 X125.022 Y141.03 E24.74355
G1 X122.39 Y141.909 E25.33183
G1 X119.965 Y142.794 E25.87909
G1 X118.412 Y143.384 E26.23129
G1 X117.884 Y143.541 E26.34807
G1 X117.546 Y143.6 E26.42081
G1 X117.101 Y143.657 E26.51592
G1 X116.424 Y143.683 E26.65955
G1 X116.152 Y143.669 E26.71729
G1 X115.997 Y143.658 E26.75023
G1 X115.015 Y143.567 E26.95931
G1 X114.907 Y143.555 E26.98234
G1 X114.24 Y143.474 E27.12479
G1 X114.182 Y143.467 E27.13717
G1 X113.533 Y143.378 E27.27605
G1 X113.433 Y143.363 E27.29748
G1 X112.758 Y143.252 E27.44251
G1 X112.698 Y143.241 E27.45544
G1 X112.35 Y143.178 E27.53041
G1 X112.302 Y143.169 E27.54077
G1 X111.628 Y143.038 E27.68633
G1 X111.506 Y143.012 E27.71277
G1 X110.457 Y142.772 E27.94091
G1 X110.359 Y142.749 E27.96225
G1 X109.709 Y142.582 E28.10452
G1 X109.589 Y142.549 E28.13091
G1 X108.504 Y142.232 E28.37054
G1 X108.4 Y142.2 E28.39361
G1 X107.797 Y142.005 E28.52797
G1 X107.681 Y141.965 E28.55398
G1 X106.591 Y141.573 E28.79955
G1 X106.493 Y141.536 E28.82176
G1 X105.933 Y141.317 E28.94923
G1 X105.815 Y141.269 E28.97624
G1 X104.709 Y140.793 E29.2315
G1 X104.613 Y140.75 E29.2538
G1 X104.063 Y140.495 E29.38233
G1 X103.951 Y140.441 E29.40869
G1 X102.933 Y139.928 E29.65036
G1 X102.843 Y139.881 E29.67188
G1 X102.315 Y139.597 E29.79898
G1 X102.216 Y139.542 E29.82299
G1 X101.405 Y139.074 E30.0215
G1 X101.308 Y139.016 E30.04546
G1 X100.294 Y138.39 E30.29809
G1 X100.184 Y138.319 E30.32585
G1 X99.378 Y137.782 E30.53117
G1 X99.286 Y137.719 E30.55481
G1 X98.959 Y137.487 E30.63981
G1 X98.597 Y137.195 E30.73841
G1 X98.311 Y136.934 E30.82049
G1 X97.932 Y136.534 E30.93731
G1 X97.719 Y136.247 E31.01308
G1 X97.445 Y135.839 E31.11727
G1 X97.311 Y135.624 E31.17098
G1 X96.845 Y134.819 E31.36817
G1 X96.816 Y134.768 E31.38061
G1 X96.454 Y134.12 E31.53797
G1 X95.062 Y131.786 E32.11409
G1 X93.592 Y129.475 E32.69474
G1 X92.069 Y127.223 E33.2711
G1 X90.483 Y125.017 E33.84709
G1 X88.842 Y122.863 E34.42116
G1 X87.368 Y121.041 E34.918
G1 X87.326 Y120.988 E34.93233
G1 X87 Y120.57 E35.04471
G1 X86.694 Y120.112 E35.16149
G1 X86.457 Y119.615 E35.27822
G1 X86.332 Y119.236 E35.36282
G1 X86.126 Y118.482 E35.52853
G1 X86.097 Y118.369 E35.55326
G1 X85.985 Y117.903 E35.65487
G1 X85.957 Y117.776 E35.68244
G1 X85.729 Y116.66 E35.92392
G1 X85.708 Y116.548 E35.94808
G1 X85.575 Y115.781 E36.11311
G1 X85.556 Y115.663 E36.13844
G1 X85.446 Y114.883 E36.30544
G1 X85.438 Y114.824 E36.31806
G1 X85.397 Y114.496 E36.38814
G1 X85.391 Y114.442 E36.39966
G1 X85.323 Y113.827 E36.53083
G1 X85.311 Y113.702 E36.55745
G1 X85.223 Y112.56 E36.80028
G1 X85.217 Y112.453 E36.823
G1 X85.185 Y111.799 E36.96181
G1 X85.18 Y111.676 E36.98791
G1 X85.161 Y110.505 E37.23619
G1 X85.161 Y110.408 E37.25676
G1 X85.166 Y109.871 E37.37061
G1 X85.17 Y109.741 E37.39818
G1 X85.221 Y108.567 E37.6473
G1 X85.226 Y108.465 E37.66895
G1 X85.273 Y107.799 E37.81049
G1 X85.285 Y107.671 E37.83775
G1 X85.405 Y106.524 E38.08224
G1 X85.417 Y106.423 E38.1038
G1 X85.488 Y105.884 E38.21906
G1 X85.504 Y105.772 E38.24304
G1 X85.665 Y104.78 E38.4561
G1 X85.683 Y104.676 E38.47847
G1 X85.84 Y103.854 E38.65589
G1 X85.869 Y103.719 E38.68516
G1 X86.122 Y102.614 E38.92548
G1 X86.146 Y102.514 E38.94729
G1 X86.388 Y101.575 E39.15286
G1 X86.41 Y101.493 E39.17086
G1 X86.472 Y101.273 E39.21931
G1 X86.492 Y101.205 E39.23434
G1 X86.733 Y100.407 E39.41106
G1 X86.93 Y99.893 E39.52776
G1 X87.092 Y99.586 E39.60135
G1 X87.358 Y99.132 E39.7129
G1 X87.767 Y98.562 E39.86163
G1 X88.493 Y97.726 E40.09637
G1 X88.571 Y97.639 E40.12114
G1 X89.1 Y97.067 E40.28631
G1 X90.887 Y95.017 E40.86285
G1 X92.615 Y92.921 E41.43874
G1 X94.305 Y90.747 E42.02251
G1 X95.889 Y88.586 E42.59053
G1 X97.459 Y86.312 E43.17636
G1 X98.708 Y84.4 E43.66052
G1 X98.823 Y84.234 E43.70334
G1 X99.181 Y83.745 E43.83182
G0 F3960 X99.609 Y84.058
G1 F1980 X99.942 Y83.671 E43.94005
G1 X100.168 Y83.466 E44.00474
G1 X100.445 Y83.238 E44.0808
G1 X100.752 Y83.014 E44.16136
G1 X100.96 Y82.88 E44.21382
G1 X101.044 Y82.828 E44.23476
G1 X101.519 Y82.542 E44.35231
G1 X101.573 Y82.51 E44.36561
G1 X102.309 Y82.086 E44.54569
G1 X102.376 Y82.048 E44.56202
G1 X102.73 Y81.855 E44.64749
G1 X102.764 Y81.837 E44.65565
G1 X103.228 Y81.591 E44.76699
G1 X103.274 Y81.567 E44.77799
G1 X103.784 Y81.307 E44.89935
G1 X103.877 Y81.262 E44.92125
G1 X104.965 Y80.75 E45.17617
G1 X105.046 Y80.713 E45.19505
G1 X105.608 Y80.467 E45.3251
G1 X105.696 Y80.43 E45.34534
G1 X106.472 Y80.117 E45.52273
G1 X106.529 Y80.095 E45.53569
G1 X106.867 Y79.966 E45.61238
G1 X106.908 Y79.95 E45.62171
G1 X107.402 Y79.769 E45.73325
G1 X107.501 Y79.735 E45.75544
G1 X108.612 Y79.368 E46.00349
G1 X108.697 Y79.341 E46.0224
G1 X109.31 Y79.157 E46.15808
G1 X109.412 Y79.128 E46.18056
G1 X110.536 Y78.83 E46.42708
G1 X110.619 Y78.809 E46.44523
G1 X111.209 Y78.669 E46.57379
G1 X111.32 Y78.645 E46.59786
G1 X112.465 Y78.415 E46.84545
G1 X112.556 Y78.398 E46.86508
G1 X113.157 Y78.295 E46.99435
G1 X113.261 Y78.279 E47.01665
G1 X114.387 Y78.123 E47.25765
G1 X114.473 Y78.112 E47.27603
G1 X115.119 Y78.04 E47.41383
G1 X115.215 Y78.031 E47.43427
G1 X116.085 Y77.96 E47.61932
G1 X116.2 Y77.952 E47.64376
G1 X117.846 Y77.876 E47.99308
G1 X117.956 Y77.873 E48.01641
G1 X118.193 Y77.87 E48.06666
G1 X118.577 Y77.888 E48.14816
G1 X119.012 Y77.934 E48.24089
G1 X119.514 Y78.027 E48.34913
G1 X120.014 Y78.206 E48.46172
G1 X121.182 Y78.734 E48.73346
G1 X123.745 Y79.847 E49.32583
G1 X126.312 Y80.88 E49.91245
G1 X128.836 Y81.809 E50.48263
G1 X131.422 Y82.68 E51.06113
G1 X134.034 Y83.48 E51.64026
G1 X137.146 Y84.326 E52.32395
G1 X137.448 Y84.425 E52.39132
G1 X137.735 Y84.534 E52.45641
G1 X138.026 Y84.661 E52.52372
G1 X138.363 Y84.828 E52.60345
G1 X138.914 Y85.173 E52.74128
G1 X139.168 Y85.37 E52.80942
G1 X139.305 Y85.482 E52.84694
G1 X140.045 Y86.123 E53.05449
G1 X140.12 Y86.191 E53.07595
G1 X140.763 Y86.784 E53.26139
G1 X140.83 Y86.847 E53.28088
G1 X141.074 Y87.085 E53.35314
G1 X141.094 Y87.105 E53.35914
G1 X141.507 Y87.515 E53.48251
G1 X141.536 Y87.543 E53.49106
G1 X141.935 Y87.949 E53.61174
G1 X142.003 Y88.021 E53.63273
G1 X142.581 Y88.646 E53.81321
G1 X142.618 Y88.687 E53.82492
G1 X142.845 Y88.941 E53.89714
G1 X142.879 Y88.979 E53.90795
G1 X143.229 Y89.383 E54.02127
G1 X143.291 Y89.457 E54.04173
G1 X143.898 Y90.201 E54.24529
G1 X143.969 Y90.291 E54.2696
G1 X144.809 Y91.398 E54.5642
G1 X144.876 Y91.49 E54.58833
G1 X145.407 Y92.243 E54.78366
G1 X145.461 Y92.322 E54.80395
G1 X145.81 Y92.849 E54.93795
G1 X145.864 Y92.933 E54.95912
G1 X146.313 Y93.658 E55.13991
G1 X146.345 Y93.711 E55.15303
G1 X146.504 Y93.979 E55.2191
G1 X146.523 Y94.012 E55.22717
G1 X146.813 Y94.514 E55.35007
G1 X146.861 Y94.599 E55.37077
G1 X147.294 Y95.403 E55.56436
G1 X147.339 Y95.491 E55.58532
G1 X147.712 Y96.237 E55.76214
G1 X147.758 Y96.333 E55.78471
G1 X148.148 Y97.181 E55.98258
G1 X148.175 Y97.24 E55.99634
G1 X148.424 Y97.811 E56.1284
G1 X148.462 Y97.903 E56.1495
G1 X148.865 Y98.91 E56.37945
G1 X148.899 Y98.998 E56.39945
G1 X149.281 Y100.039 E56.63453
G1 X149.313 Y100.132 E56.65538
G1 X149.377 Y100.324 E56.69828
G1 X149.477 Y100.692 E56.77913
G1 X149.552 Y101.053 E56.8573
G1 X149.616 Y101.559 E56.96542
G1 X149.618 Y101.832 E57.0233
G1 X149.601 Y102.316 E57.12597
G1 X149.585 Y102.54 E57.17358
G1 X149.471 Y103.632 E57.40634
G1 X149.466 Y103.68 E57.41657
G1 X149.421 Y104.06 E57.4977
G1 X149.175 Y106.744 E58.06909
G1 X149.001 Y109.517 E58.65812
G1 X148.908 Y112.23 E59.23362
G1 X148.89 Y114.981 E59.81684
G1 X148.951 Y117.709 E60.39532
G1 X149.07 Y120.172 E60.91809
G1 X149.074 Y120.335 E60.95265
G1 X149.073 Y120.931 E61.079
G1 X149.006 Y121.583 E61.21796
G1 X148.96 Y121.807 E61.26643
G1 X148.811 Y122.318 E61.37928
G1 X148.675 Y122.673 E61.45987
G1 X148.624 Y122.798 E61.48849
G1 X148.106 Y123.999 E61.76578
G1 X148.062 Y124.096 E61.78836
G1 X147.735 Y124.791 E61.95119
G1 X147.693 Y124.877 E61.97148
G1 X147.503 Y125.252 E62.0606
G1 X147.491 Y125.276 E62.06629
G1 X147.248 Y125.746 E62.17846
G1 X147.226 Y125.788 E62.18851
G1 X146.95 Y126.303 E62.31238
G1 X146.9 Y126.393 E62.33421
G1 X146.41 Y127.242 E62.54203
G1 X146.364 Y127.319 E62.56104
G1 X145.929 Y128.027 E62.7372
G1 X145.864 Y128.128 E62.76267
G1 X145.225 Y129.087 E63.00697
G1 X145.175 Y129.16 E63.02573
G1 X144.803 Y129.687 E63.16249
G1 X144.738 Y129.776 E63.18585
G1 X144.024 Y130.718 E63.43644
G1 X143.973 Y130.784 E63.45412
G1 X143.635 Y131.207 E63.56891
G1 X143.572 Y131.283 E63.58984
G1 X142.978 Y131.982 E63.7843
G1 X142.94 Y132.026 E63.79663
G1 X142.748 Y132.244 E63.85821
G1 X142.722 Y132.273 E63.86647
G1 X142.325 Y132.713 E63.99211
G1 X142.246 Y132.798 E64.01671
G1 X141.428 Y133.642 E64.26588
G1 X141.37 Y133.7 E64.28327
G1 X140.934 Y134.128 E64.4128
G1 X140.863 Y134.196 E64.43364
G1 X140.232 Y134.779 E64.61577
G1 X140.141 Y134.86 E64.6416
G1 X139.012 Y135.828 E64.95688
G1 X138.931 Y135.895 E64.97916
G1 X138.231 Y136.457 E65.16947
G1 X138.15 Y136.52 E65.19123
G1 X137.609 Y136.927 E65.33475
G1 X136.98 Y137.298 E65.48957
G1 X136.598 Y137.469 E65.57829
G1 X136.253 Y137.601 E65.6566
G1 X136.039 Y137.669 E65.70421
G1 X135.71 Y137.755 E65.7763
G1 X135.458 Y137.807 E65.83085
G1 X132.735 Y138.384 E66.42094
G1 X130.13 Y139.015 E66.98917
G1 X127.448 Y139.742 E67.57828
G1 X124.847 Y140.529 E68.15438
G1 X122.231 Y141.403 E68.7391
G1 X119.777 Y142.298 E69.29287
G1 X118.224 Y142.888 E69.64507
G1 X117.733 Y143.032 E69.75354
G1 X117.479 Y143.075 E69.80816
G1 X117.034 Y143.132 E69.90327
G1 X116.451 Y143.154 E70.02695
G1 X116.179 Y143.14 E70.08469
G1 X116.046 Y143.13 E70.11297
G1 X115.064 Y143.039 E70.32204
G1 X114.971 Y143.029 E70.34187
G1 X114.304 Y142.948 E70.48431
G1 X114.254 Y142.942 E70.49499
G1 X113.605 Y142.853 E70.63387
G1 X113.519 Y142.84 E70.65231
G1 X112.844 Y142.729 E70.79733
G1 X112.792 Y142.72 E70.80852
G1 X112.444 Y142.657 E70.88349
G1 X112.403 Y142.649 E70.89235
G1 X111.729 Y142.518 E71.03791
G1 X111.624 Y142.496 E71.06065
G1 X110.575 Y142.256 E71.28879
G1 X110.491 Y142.235 E71.30714
G1 X109.841 Y142.068 E71.44942
G1 X109.737 Y142.04 E71.47225
G1 X108.652 Y141.723 E71.71189
G1 X108.563 Y141.696 E71.7316
G1 X107.96 Y141.501 E71.86596
G1 X107.86 Y141.466 E71.88842
G1 X106.77 Y141.074 E72.13399
G1 X106.686 Y141.043 E72.15297
G1 X106.126 Y140.824 E72.28045
G1 X106.024 Y140.782 E72.30383
G1 X104.918 Y140.306 E72.5591
G1 X104.836 Y140.269 E72.57817
G1 X104.286 Y140.014 E72.70669
G1 X104.19 Y139.968 E72.72926
G1 X103.172 Y139.455 E72.97093
